X: 1
T:Down with the Rumps. WCl.21
T:Rodrick Random. WCl.21
M:6/8
L:1/8
Q:120
C:"or Rodrick Random"
S:William Clarke MS,Lincoln,1770.
R:Jig
O:Lincoln
A:England
Z:vmp.Barry Callaghan
K:G
D|GAB ABc|Bcd cde|dBG cAA|BGG G2::!
d/2c/2|Bcd g3|ecc c2 d/2c/2|Bee a3|fdd d2 d|!
Bdd g3|ecc c2 d/2c/2|BGG cAA|BGG G2:||
